X:188
T:Whiskey You're the Devil
R:song
C:Jerry Barrington (1873)
D:Clancy Brothers
Z:id:hn-song-188
M:2/4
L:1/8
Q:1/4=140
K:C
CC CD | E G2 G | AG AB | c4 |
c>c cA | A G2 E | DD DE | D3
E | CC CD | EG GG | AG AB | c3
c | cB AG | AG EC | D4 | C4- | C2 ||
D2 | CC CD | EG GE | DD DE | FA A>
B | cc cG | AG EC/C/ | D/D/D DE | DC A,G, |
C2 E>D | C2 ED | C/C/C/C/ C/D/E/F/ | G3
E | D/D/D/D/ D/E/F/G/ | A3G | cd cG | AG E
C | DC DE | C4 ||
W:Chorus:
W:Whiskey, you're the devil, you're leadin' me astray
W:Over hills and mountains and to Americay
W:You're sweeter, stronger, decenter, you're spunkier than tae
W:O whiskey, you're my darlin' drunk or sober
W:
W:Oh, now, brave boys, we're on the march and off to Portugal and Spain
W:The drums are beating, banners flying, the devil at home will come tonight
W:Love, fare thee well, with me tithery idle doodelum a da
W:Me tithery idle doodelum de da, me right fol toora laddie oh
W:There's whiskey in the jar!
W:
W:Chorus
W:
W:Said the mother: "Do not wrong me, don't take my daughter from me
W:For if you do I will torment you, and after death my ghost will haunt you"
W:Love, fare thee well, with me tithery idle doodelum a da
W:Me tithery idle doodelum de da, me right fol toora laddie oh
W:There's whiskey in the jar!
W:
W:Chorus
W:
W:The French are fighting boldly, men dying hot and coldly
W:Give every man his flask of powder, his firelock on his shoulder
W:Love, fare thee well, with me tithery idle doodelum a da
W:Me tithery idle doodelum de da, me right fol toora laddie oh
W:There's whiskey in the jar!
W:
W:Chorus

